images/logo.svg

<svg width="147" height="47" viewBox="0 0 147 47" fill="none" xmlns="http://www.w3.org/2000/svg">
<path d="M5.65649 18.7861L22.6261 8.41577L39.5958 18.7861" stroke="#0468FF" stroke-width="4.68937" stroke-linecap="round" stroke-linejoin="round"/>
<path d="M35.825 27.2612V39.3285C35.825 39.9534 35.3185 40.4598 34.6937 40.4598H10.559C9.93424 40.4598 9.42773 39.9534 9.42773 39.3285V27.2612" stroke="#0468FF" stroke-width="4.68937" stroke-linecap="round" stroke-linejoin="round"/>
<path d="M52.8001 37.7753V34.4306H53.2732V37.3596H55.1367V34.4306H55.6097V37.7753H52.8001ZM55.6814 38.535V37.6511L55.7961 37.7753H55.1367V37.3596H56.1258V38.535H55.6814ZM57.531 35.8736H59.2512V36.2797H57.531V35.8736ZM57.574 37.3596H59.5235V37.7753H57.0962V34.4306H59.4566V34.8463H57.574V37.3596ZM63.007 34.4306H63.4849V37.7753H63.007V34.4306ZM61.0862 37.7753H60.6084V34.4306H61.0862V37.7753ZM63.05 36.2845H61.0384V35.8688H63.05V36.2845ZM65.5458 37.7753V34.722L65.6652 34.8463H64.4038V34.4306H67.1608V34.8463H65.8993L66.014 34.722V37.7753H65.5458ZM68.076 37.7753V34.4306H69.3804C69.6735 34.4306 69.9236 34.4767 70.1306 34.5691C70.3377 34.6615 70.497 34.7953 70.6084 34.9705C70.7199 35.1457 70.7757 35.3543 70.7757 35.5964C70.7757 35.8385 70.7199 36.0472 70.6084 36.2224C70.497 36.3944 70.3377 36.5282 70.1306 36.6238C69.9236 36.7161 69.6735 36.7623 69.3804 36.7623H68.3388L68.5538 36.5377V37.7753H68.076ZM68.5538 36.5855L68.3388 36.3466H69.3661C69.6719 36.3466 69.9029 36.2813 70.059 36.1507C70.2182 36.0201 70.2979 35.8353 70.2979 35.5964C70.2979 35.3575 70.2182 35.1728 70.059 35.0422C69.9029 34.9116 69.6719 34.8463 69.3661 34.8463H68.3388L68.5538 34.6074V36.5855ZM73.4392 37.7753V34.4306H73.9122V37.3596H75.7757V34.4306H76.2487V37.7753H73.4392ZM76.3204 38.535V37.6511L76.4351 37.7753H75.7757V37.3596H76.7648V38.535H76.3204ZM77.7352 37.7753V34.4306H78.2083V37.0108L80.1865 34.4306H80.6261V37.7753H80.1578V35.1998L78.1748 37.7753H77.7352ZM83.6375 37.5507C83.2297 37.5507 82.8809 37.495 82.5911 37.3835C82.3012 37.2688 82.0798 37.1032 81.9269 36.8866C81.774 36.6699 81.6975 36.4071 81.6975 36.0981C81.6975 35.7892 81.774 35.5264 81.9269 35.3097C82.0798 35.0931 82.3012 34.9275 82.5911 34.8128C82.8809 34.6981 83.2297 34.6408 83.6375 34.6408C83.6439 34.6408 83.655 34.6408 83.6709 34.6408C83.69 34.6408 83.7076 34.6408 83.7235 34.6408C83.7426 34.6408 83.7538 34.6408 83.7569 34.6408C84.1647 34.6408 84.5119 34.6981 84.7986 34.8128C85.0885 34.9275 85.3099 35.0931 85.4628 35.3097C85.6157 35.5264 85.6921 35.7892 85.6921 36.0981C85.6921 36.404 85.6157 36.6668 85.4628 36.8866C85.313 37.1032 85.0948 37.2688 84.8081 37.3835C84.5246 37.495 84.1806 37.5507 83.7761 37.5507C83.7697 37.5507 83.7553 37.5507 83.733 37.5507C83.7139 37.5507 83.6948 37.5507 83.6757 37.5507C83.6566 37.5507 83.6439 37.5507 83.6375 37.5507ZM83.69 37.178C83.6964 37.178 83.7044 37.178 83.7139 37.178C83.7235 37.178 83.7283 37.178 83.7283 37.178C84.0532 37.1748 84.3271 37.1334 84.5501 37.0538C84.7731 36.971 84.9419 36.8499 85.0566 36.6906C85.1745 36.5282 85.2334 36.3291 85.2334 36.0934C85.2334 35.8608 85.1745 35.6649 85.0566 35.5057C84.9387 35.3464 84.7683 35.2253 84.5453 35.1425C84.3255 35.0597 84.0564 35.0183 83.7378 35.0183C83.7346 35.0183 83.7267 35.0183 83.7139 35.0183C83.7044 35.0183 83.6964 35.0183 83.69 35.0183C83.3619 35.0183 83.0832 35.0597 82.8539 35.1425C82.6277 35.2221 82.4557 35.3416 82.3378 35.5009C82.2199 35.6601 82.161 35.8592 82.161 36.0981C82.161 36.3371 82.2215 36.5362 82.3426 36.6954C82.4636 36.8547 82.6372 36.9757 82.8634 37.0586C83.0928 37.1382 83.3683 37.178 83.69 37.178ZM83.475 37.8995V34.3063H83.9194V37.8995H83.475ZM86.7614 37.7753V34.4306H88.0658C88.3589 34.4306 88.609 34.4767 88.816 34.5691C89.0231 34.6615 89.1823 34.7953 89.2938 34.9705C89.4053 35.1457 89.4611 35.3543 89.4611 35.5964C89.4611 35.8385 89.4053 36.0472 89.2938 36.2224C89.1823 36.3944 89.0231 36.5282 88.816 36.6238C88.609 36.7161 88.3589 36.7623 88.0658 36.7623H87.0242L87.2392 36.5377V37.7753H86.7614ZM87.2392 36.5855L87.0242 36.3466H88.0515C88.3573 36.3466 88.5882 36.2813 88.7443 36.1507C88.9036 36.0201 88.9832 35.8353 88.9832 35.5964C88.9832 35.3575 88.9036 35.1728 88.7443 35.0422C88.5882 34.9116 88.3573 34.8463 88.0515 34.8463H87.0242L87.2392 34.6074V36.5855ZM92.012 37.8135C91.7572 37.8135 91.5198 37.7705 91.3 37.6845C91.0834 37.5985 90.8955 37.4791 90.7362 37.3261C90.5769 37.1701 90.4527 36.9885 90.3635 36.7814C90.2743 36.5744 90.2297 36.3482 90.2297 36.1029C90.2297 35.8576 90.2743 35.6315 90.3635 35.4244C90.4527 35.2174 90.5769 35.0374 90.7362 34.8845C90.8955 34.7284 91.0834 34.6074 91.3 34.5213C91.5167 34.4353 91.754 34.3923 92.012 34.3923C92.2668 34.3923 92.501 34.4353 92.7144 34.5213C92.931 34.6042 93.1189 34.7236 93.2782 34.8797C93.4407 35.0326 93.5649 35.2126 93.6509 35.4196C93.7401 35.6267 93.7847 35.8545 93.7847 36.1029C93.7847 36.3514 93.7401 36.5792 93.6509 36.7862C93.5649 36.9933 93.4407 37.1748 93.2782 37.3309C93.1189 37.4838 92.931 37.6033 92.7144 37.6893C92.501 37.7721 92.2668 37.8135 92.012 37.8135ZM92.012 37.3883C92.1967 37.3883 92.3672 37.3564 92.5233 37.2927C92.6825 37.229 92.8195 37.1398 92.9342 37.0251C93.052 36.9073 93.1428 36.7703 93.2065 36.6142C93.2734 36.4581 93.3069 36.2877 93.3069 36.1029C93.3069 35.9182 93.2734 35.7477 93.2065 35.5917C93.1428 35.4356 93.052 35.3002 92.9342 35.1855C92.8195 35.0677 92.6825 34.9769 92.5233 34.9132C92.3672 34.8494 92.1967 34.8176 92.012 34.8176C91.824 34.8176 91.6504 34.8494 91.4912 34.9132C91.3351 34.9769 91.1981 35.0677 91.0802 35.1855C90.9624 35.3002 90.87 35.4356 90.8031 35.5917C90.7394 35.7477 90.7075 35.9182 90.7075 36.1029C90.7075 36.2877 90.7394 36.4581 90.8031 36.6142C90.87 36.7703 90.9624 36.9073 91.0802 37.0251C91.1981 37.1398 91.3351 37.229 91.4912 37.2927C91.6504 37.3564 91.824 37.3883 92.012 37.3883ZM94.8916 37.7753V34.4306H96.3298C96.693 34.4306 96.9781 34.5038 97.1851 34.6504C97.3922 34.7969 97.4957 35.0103 97.4957 35.2906C97.4957 35.5646 97.397 35.7748 97.1995 35.9214C97.002 36.0647 96.7424 36.1364 96.4206 36.1364L96.5066 35.993C96.8793 35.993 97.1644 36.0679 97.3619 36.2176C97.5626 36.3641 97.663 36.5792 97.663 36.8627C97.663 37.1494 97.5578 37.3739 97.3476 37.5364C97.1405 37.6957 96.8316 37.7753 96.4206 37.7753H94.8916ZM95.3646 37.3978H96.4111C96.6659 37.3978 96.857 37.3516 96.9845 37.2593C97.1151 37.1637 97.1804 37.0188 97.1804 36.8244C97.1804 36.6301 97.1151 36.4884 96.9845 36.3992C96.857 36.31 96.6659 36.2654 96.4111 36.2654H95.3646V37.3978ZM95.3646 35.9022H96.2964C96.5289 35.9022 96.7057 35.8561 96.8268 35.7637C96.951 35.6713 97.0131 35.5359 97.0131 35.3575C97.0131 35.176 96.951 35.039 96.8268 34.9466C96.7057 34.8542 96.5289 34.808 96.2964 34.808H95.3646V35.9022ZM100.263 35.5964C100.658 35.5964 100.962 35.6856 101.175 35.864C101.389 36.0392 101.495 36.302 101.495 36.6524C101.495 37.0219 101.379 37.3023 101.147 37.4934C100.917 37.6813 100.594 37.7753 100.177 37.7753H98.7957V34.4306H99.2688V35.5964H100.263ZM100.158 37.3978C100.435 37.3978 100.646 37.3357 100.793 37.2115C100.943 37.0872 101.018 36.9041 101.018 36.662C101.018 36.4263 100.944 36.2526 100.798 36.1412C100.651 36.0297 100.438 35.9739 100.158 35.9739H99.2688V37.3978H100.158ZM102.026 37.7753V34.4306H102.499V37.7753H102.026ZM103.517 34.4306H104.067L104.941 35.6538L105.816 34.4306H106.375L105.242 36.036L106.466 37.7753H105.902L104.941 36.4422L103.986 37.7753H103.436L104.655 36.0551L103.517 34.4306ZM109.703 37.7753V34.722L109.822 34.8463H108.561V34.4306H111.318V34.8463H110.056L110.171 34.722V37.7753H109.703ZM112.668 35.8736H114.388V36.2797H112.668V35.8736ZM112.711 37.3596H114.66V37.7753H112.233V34.4306H114.594V34.8463H112.711V37.3596ZM115.35 34.4306H115.899L116.773 35.6538L117.648 34.4306H118.207L117.075 36.036L118.298 37.7753H117.734L116.773 36.4422L115.818 37.7753H115.268L116.487 36.0551L115.35 34.4306ZM121.521 34.4306H121.999V37.7753H121.521V34.4306ZM119.6 37.7753H119.122V34.4306H119.6V37.7753ZM121.564 36.2845H119.552V35.8688H121.564V36.2845ZM124.881 37.8135C124.627 37.8135 124.389 37.7705 124.169 37.6845C123.953 37.5985 123.765 37.4791 123.606 37.3261C123.446 37.1701 123.322 36.9885 123.233 36.7814C123.144 36.5744 123.099 36.3482 123.099 36.1029C123.099 35.8576 123.144 35.6315 123.233 35.4244C123.322 35.2174 123.446 35.0374 123.606 34.8845C123.765 34.7284 123.953 34.6074 124.169 34.5213C124.386 34.4353 124.623 34.3923 124.881 34.3923C125.136 34.3923 125.37 34.4353 125.584 34.5213C125.8 34.6042 125.988 34.7236 126.148 34.8797C126.31 35.0326 126.434 35.2126 126.52 35.4196C126.609 35.6267 126.654 35.8545 126.654 36.1029C126.654 36.3514 126.609 36.5792 126.52 36.7862C126.434 36.9933 126.31 37.1748 126.148 37.3309C125.988 37.4838 125.8 37.6033 125.584 37.6893C125.37 37.7721 125.136 37.8135 124.881 37.8135ZM124.881 37.3883C125.066 37.3883 125.237 37.3564 125.393 37.2927C125.552 37.229 125.689 37.1398 125.804 37.0251C125.921 36.9073 126.012 36.7703 126.076 36.6142C126.143 36.4581 126.176 36.2877 126.176 36.1029C126.176 35.9182 126.143 35.7477 126.076 35.5917C126.012 35.4356 125.921 35.3002 125.804 35.1855C125.689 35.0677 125.552 34.9769 125.393 34.9132C125.237 34.8494 125.066 34.8176 124.881 34.8176C124.693 34.8176 124.52 34.8494 124.361 34.9132C124.204 34.9769 124.067 35.0677 123.95 35.1855C123.832 35.3002 123.739 35.4356 123.672 35.5917C123.609 35.7477 123.577 35.9182 123.577 36.1029C123.577 36.2877 123.609 36.4581 123.672 36.6142C123.739 36.7703 123.832 36.9073 123.95 37.0251C124.067 37.1398 124.204 37.229 124.361 37.2927C124.52 37.3564 124.693 37.3883 124.881 37.3883ZM127.51 37.8135C127.462 37.8135 127.414 37.8103 127.367 37.804C127.319 37.7976 127.266 37.788 127.209 37.7753L127.242 37.35C127.293 37.3628 127.344 37.3692 127.395 37.3692C127.535 37.3692 127.647 37.3134 127.73 37.2019C127.813 37.0904 127.873 36.9216 127.911 36.6954C127.953 36.4693 127.98 36.1842 127.993 35.8401L128.045 34.4306H130.401V37.7753H129.933V34.722L130.047 34.8463H128.351L128.456 34.7172L128.418 35.8258C128.408 36.1571 128.386 36.447 128.351 36.6954C128.316 36.9439 128.263 37.1509 128.193 37.3166C128.123 37.4822 128.032 37.6065 127.921 37.6893C127.813 37.7721 127.676 37.8135 127.51 37.8135ZM133.282 37.8135C133.027 37.8135 132.79 37.7705 132.57 37.6845C132.354 37.5985 132.166 37.4791 132.006 37.3261C131.847 37.1701 131.723 36.9885 131.634 36.7814C131.545 36.5744 131.5 36.3482 131.5 36.1029C131.5 35.8576 131.545 35.6315 131.634 35.4244C131.723 35.2174 131.847 35.0374 132.006 34.8845C132.166 34.7284 132.354 34.6074 132.57 34.5213C132.787 34.4353 133.024 34.3923 133.282 34.3923C133.537 34.3923 133.771 34.4353 133.985 34.5213C134.201 34.6042 134.389 34.7236 134.548 34.8797C134.711 35.0326 134.835 35.2126 134.921 35.4196C135.01 35.6267 135.055 35.8545 135.055 36.1029C135.055 36.3514 135.01 36.5792 134.921 36.7862C134.835 36.9933 134.711 37.1748 134.548 37.3309C134.389 37.4838 134.201 37.6033 133.985 37.6893C133.771 37.7721 133.537 37.8135 133.282 37.8135ZM133.282 37.3883C133.467 37.3883 133.637 37.3564 133.793 37.2927C133.953 37.229 134.09 37.1398 134.204 37.0251C134.322 36.9073 134.413 36.7703 134.477 36.6142C134.544 36.4581 134.577 36.2877 134.577 36.1029C134.577 35.9182 134.544 35.7477 134.477 35.5917C134.413 35.4356 134.322 35.3002 134.204 35.1855C134.09 35.0677 133.953 34.9769 133.793 34.9132C133.637 34.8494 133.467 34.8176 133.282 34.8176C133.094 34.8176 132.921 34.8494 132.761 34.9132C132.605 34.9769 132.468 35.0677 132.35 35.1855C132.233 35.3002 132.14 35.4356 132.073 35.5917C132.01 35.7477 131.978 35.9182 131.978 36.1029C131.978 36.2877 132.01 36.4581 132.073 36.6142C132.14 36.7703 132.233 36.9073 132.35 37.0251C132.468 37.1398 132.605 37.229 132.761 37.2927C132.921 37.3564 133.094 37.3883 133.282 37.3883ZM136.162 37.7753V34.4306H138.355L138.35 34.8463H136.515L136.63 34.7268L136.635 37.7753H136.162ZM139.259 37.7753V34.4306H139.732V37.0108L141.71 34.4306H142.15V37.7753H141.681V35.1998L139.698 37.7753H139.259ZM143.527 37.7753V34.4306H144V37.0108L145.978 34.4306H146.418V37.7753H145.949V35.1998L143.966 37.7753H143.527ZM144.965 34.1964C144.704 34.1964 144.502 34.1391 144.358 34.0244C144.218 33.9097 144.146 33.7489 144.143 33.5418H144.482C144.486 33.666 144.53 33.7632 144.616 33.8333C144.702 33.9002 144.819 33.9336 144.965 33.9336C145.108 33.9336 145.223 33.9002 145.309 33.8333C145.398 33.7632 145.444 33.666 145.448 33.5418H145.782C145.779 33.7489 145.706 33.9097 145.562 34.0244C145.422 34.1391 145.223 34.1964 144.965 34.1964Z" fill="#7F7F7F"/>
<path d="M60.6409 27.6015C59.5233 27.6015 58.4923 27.4219 57.5477 27.0627C56.6031 26.7035 55.7783 26.198 55.0731 25.5461C54.3813 24.8809 53.8425 24.1092 53.4567 23.2312C53.0709 22.3531 52.878 21.3886 52.878 20.3375C52.878 19.2865 53.0709 18.322 53.4567 17.4439C53.8425 16.5658 54.3813 15.8009 55.0731 15.149C55.7783 14.4838 56.6031 13.9716 57.5477 13.6124C58.4923 13.2531 59.5233 13.0735 60.6409 13.0735C61.7717 13.0735 62.8028 13.2531 63.7341 13.6124C64.6786 13.9716 65.4968 14.4838 66.1886 15.149C66.8805 15.8009 67.4193 16.5658 67.8051 17.4439C68.2042 18.322 68.4038 19.2865 68.4038 20.3375C68.4038 21.3886 68.2042 22.3597 67.8051 23.2511C67.4193 24.1292 66.8805 24.8942 66.1886 25.5461C65.4968 26.198 64.6786 26.7035 63.7341 27.0627C62.8028 27.4219 61.7717 27.6015 60.6409 27.6015ZM60.6409 24.3287C61.173 24.3287 61.6653 24.2356 62.1176 24.0494C62.5833 23.8631 62.9824 23.597 63.315 23.2511C63.6609 22.8919 63.927 22.4662 64.1132 21.9739C64.3128 21.4817 64.4126 20.9362 64.4126 20.3375C64.4126 19.7255 64.3128 19.1801 64.1132 18.7011C63.927 18.2089 63.6609 17.7898 63.315 17.4439C62.9824 17.0847 62.5833 16.812 62.1176 16.6257C61.6653 16.4395 61.173 16.3463 60.6409 16.3463C60.1087 16.3463 59.6098 16.4395 59.1442 16.6257C58.6918 16.812 58.2927 17.0847 57.9468 17.4439C57.6142 17.7898 57.3481 18.2089 57.1486 18.7011C56.9623 19.1801 56.8692 19.7255 56.8692 20.3375C56.8692 20.9362 56.9623 21.4817 57.1486 21.9739C57.3481 22.4662 57.6142 22.8919 57.9468 23.2511C58.2927 23.597 58.6918 23.8631 59.1442 24.0494C59.6098 24.2356 60.1087 24.3287 60.6409 24.3287ZM70.5165 27.3221V13.3529H74.4079V24.189H79.7761V13.3529H83.6675V27.3221H70.5165ZM81.9712 30.1759V26.4441L82.7894 27.3221H79.7761V24.189H85.5833V30.1759H81.9712ZM91.0838 18.761H97.5695V21.7145H91.0838V18.761ZM91.3632 24.2689H98.6671V27.3221H87.4518V13.3529H98.4077V16.4062H91.3632V24.2689ZM110.258 13.3529H114.209V27.3221H110.258V13.3529ZM104.87 27.3221H100.918V13.3529H104.87V27.3221ZM110.537 21.8741H104.59V18.6014H110.537V21.8741ZM126.031 27.3221L122.1 20.6768L125.273 18.8009L130.481 27.3221H126.031ZM117.131 27.3221V13.3529H121.062V27.3221H117.131ZM119.924 21.9739V18.781H124.993V21.9739H119.924ZM125.652 20.7566L122 20.3575L126.29 13.3529H130.441L125.652 20.7566ZM130.02 27.3221L136.187 13.3529H140.078L146.265 27.3221H142.154L137.324 15.2887H138.881L134.052 27.3221H130.02ZM133.393 24.6081L134.411 21.6945H141.236L142.254 24.6081H133.393Z" fill="#152242"/>
</svg>

<svg width="147" height="47" fill="none" xmlns="http://www.w3.org/2000/svg"><path d="m5.656 18.786 16.97-10.37 16.97 10.37M35.825 27.261v12.067c0 .625-.507 1.132-1.131 1.132H10.559a1.131 1.131 0 0 1-1.131-1.132V27.261" stroke="#0468FF" stroke-width="4.689" stroke-linecap="round" stroke-linejoin="round"/><path d="M52.8 37.775v-3.344h.473v2.929h1.864v-2.93h.473v3.345H52.8Zm2.881.76v-.884l.115.124h-.66v-.415h.99v1.175h-.445Zm1.85-2.661h1.72v.406h-1.72v-.406Zm.043 1.486h1.95v.415h-2.428v-3.344h2.36v.415h-1.882v2.514Zm5.433-2.93h.478v3.345h-.478v-3.344Zm-1.92 3.345h-.479v-3.344h.478v3.344Zm1.963-1.49h-2.012v-.416h2.012v.416Zm2.496 1.49v-3.053l.12.124h-1.262v-.415h2.757v.415h-1.262l.115-.124v3.053h-.468Zm2.53 0v-3.344h1.304c.294 0 .544.046.75.138.208.092.367.226.478.401.112.176.168.384.168.626 0 .243-.056.451-.168.626-.111.172-.27.306-.477.402a1.835 1.835 0 0 1-.75.138h-1.042l.215-.224v1.237h-.478Zm.478-1.19-.215-.238h1.027c.306 0 .537-.066.693-.196.16-.13.239-.316.239-.555 0-.238-.08-.423-.239-.554-.156-.13-.387-.196-.693-.196H68.34l.215-.239v1.979Zm4.885 1.19v-3.344h.473v2.929h1.864v-2.93h.473v3.345h-2.81Zm2.881.76v-.884l.115.124h-.66v-.415h.99v1.175h-.445Zm1.415-.76v-3.344h.473v2.58l1.978-2.58h.44v3.344h-.468V35.2l-1.983 2.575h-.44Zm5.903-.224c-.408 0-.757-.056-1.047-.168a1.43 1.43 0 0 1-.664-.496 1.333 1.333 0 0 1-.23-.789c0-.309.077-.572.23-.788a1.43 1.43 0 0 1 .664-.497c.29-.115.639-.172 1.047-.172h.119c.408 0 .755.057 1.042.172.29.114.51.28.664.497.153.216.23.48.23.788 0 .306-.077.569-.23.789-.15.216-.368.382-.655.496-.283.112-.627.168-1.032.168h-.138Zm.052-.373h.038c.325-.003.6-.045.822-.124.223-.083.392-.204.507-.363a.99.99 0 0 0 .176-.598.96.96 0 0 0-.176-.587 1.085 1.085 0 0 0-.512-.364 2.302 2.302 0 0 0-.807-.124h-.048c-.328 0-.607.042-.836.124-.226.08-.398.2-.516.359a.976.976 0 0 0-.177.597c0 .24.06.438.182.597.12.16.294.28.52.364.23.08.505.119.827.119Zm-.215.722v-3.594h.444V37.9h-.444Zm3.286-.125v-3.344h1.305c.293 0 .543.046.75.138.207.092.366.226.478.401.111.176.167.384.167.626 0 .243-.056.451-.167.626-.112.172-.27.306-.478.402a1.835 1.835 0 0 1-.75.138h-1.042l.215-.224v1.237h-.478Zm.478-1.19-.215-.238h1.028c.305 0 .536-.066.692-.196.16-.13.24-.316.24-.555 0-.238-.08-.423-.24-.554-.156-.13-.387-.196-.692-.196h-1.028l.215-.239v1.979Zm4.773 1.228c-.255 0-.492-.043-.712-.129a1.72 1.72 0 0 1-.564-.358 1.69 1.69 0 0 1-.506-1.223 1.639 1.639 0 0 1 .507-1.218c.159-.157.346-.278.563-.364.217-.086.454-.129.712-.129.255 0 .489.043.702.13.217.082.405.202.564.358.163.153.287.333.373.54.09.207.134.434.134.683 0 .248-.045.476-.134.683-.086.207-.21.389-.373.545-.16.153-.347.272-.564.358a1.926 1.926 0 0 1-.702.124Zm0-.425c.185 0 .355-.032.511-.095a1.208 1.208 0 0 0 .684-.679c.066-.156.1-.326.1-.511a1.284 1.284 0 0 0-.373-.918 1.175 1.175 0 0 0-.41-.272 1.339 1.339 0 0 0-.512-.095c-.188 0-.362.031-.52.095a1.236 1.236 0 0 0-.412.273c-.118.114-.21.25-.277.406a1.34 1.34 0 0 0-.096.51c0 .186.032.356.096.512.067.156.16.293.277.411.118.115.255.204.411.268.16.063.333.095.521.095Zm2.88.387v-3.344h1.438c.363 0 .648.073.855.22.207.146.31.36.31.64 0 .274-.098.484-.296.63-.197.144-.457.215-.778.215l.086-.143c.372 0 .657.075.855.225.2.146.301.361.301.645a.804.804 0 0 1-.315.673c-.207.16-.516.24-.927.24h-1.53Zm.473-.377h1.046c.255 0 .446-.046.573-.139.131-.095.196-.24.196-.435 0-.194-.065-.336-.196-.425-.127-.089-.318-.134-.573-.134h-1.046v1.133Zm0-1.496h.931c.233 0 .41-.046.53-.138.125-.093.187-.228.187-.407 0-.181-.062-.318-.186-.41-.121-.093-.298-.139-.53-.139h-.932v1.094Zm4.898-.306c.395 0 .699.09.912.268.214.175.32.438.32.788 0 .37-.116.65-.348.841-.23.188-.553.282-.97.282h-1.381v-3.344h.473v1.165h.994Zm-.105 1.802c.277 0 .488-.062.635-.187.15-.124.225-.307.225-.549 0-.236-.074-.41-.22-.52-.147-.112-.36-.168-.64-.168h-.89v1.424h.89Zm1.868.377v-3.344h.473v3.344h-.473Zm1.491-3.344h.55l.874 1.223.875-1.223h.559l-1.133 1.605 1.224 1.74h-.564l-.961-1.334-.955 1.333h-.55l1.219-1.72-1.138-1.624Zm6.186 3.344v-3.053l.119.124h-1.261v-.415h2.757v.415h-1.262l.115-.124v3.053h-.468Zm2.965-1.901h1.72v.406h-1.72v-.406Zm.043 1.486h1.949v.415h-2.427v-3.344h2.361v.415h-1.883v2.514Zm2.639-2.93h.549l.874 1.224.875-1.223h.559l-1.132 1.605 1.223 1.74h-.564l-.961-1.334-.955 1.333h-.55l1.219-1.72-1.137-1.624Zm6.171 0h.478v3.345h-.478v-3.344Zm-1.921 3.345h-.478v-3.344h.478v3.344Zm1.964-1.49h-2.012v-.416h2.012v.416Zm3.317 1.529a1.94 1.94 0 0 1-.712-.13 1.72 1.72 0 0 1-.563-.358 1.678 1.678 0 0 1-.507-1.223 1.7 1.7 0 0 1 .134-.679 1.684 1.684 0 0 1 .936-.903c.217-.086.454-.129.712-.129.255 0 .489.043.703.13.216.082.404.202.564.358.162.153.286.333.372.54.089.207.134.434.134.683 0 .248-.045.476-.134.683-.086.207-.21.389-.372.545-.16.153-.348.272-.564.358a1.931 1.931 0 0 1-.703.124Zm0-.426c.185 0 .356-.032.512-.095a1.213 1.213 0 0 0 .683-.679c.067-.156.1-.326.1-.511a1.282 1.282 0 0 0-.372-.918 1.18 1.18 0 0 0-.411-.272 1.341 1.341 0 0 0-.512-.095c-.188 0-.361.031-.52.095a1.218 1.218 0 0 0-.411.273c-.118.114-.211.25-.278.406a1.353 1.353 0 0 0-.095.51c0 .186.032.356.095.512a1.254 1.254 0 0 0 .689.679c.159.063.332.095.52.095Zm2.629.425c-.048 0-.096-.003-.143-.009a1.87 1.87 0 0 1-.158-.029l.033-.425c.051.013.102.02.153.02.14 0 .252-.057.335-.168.083-.112.143-.28.181-.507.042-.226.069-.51.082-.855l.052-1.41h2.356v3.345h-.468v-3.053l.114.124h-1.696l.105-.129-.038 1.109a8.07 8.07 0 0 1-.067.87 2.513 2.513 0 0 1-.158.62.877.877 0 0 1-.272.373.656.656 0 0 1-.411.124Zm5.772 0c-.255 0-.492-.043-.712-.129a1.735 1.735 0 0 1-.564-.358 1.69 1.69 0 0 1-.506-1.223 1.7 1.7 0 0 1 .134-.679 1.699 1.699 0 0 1 .936-.903c.217-.086.454-.129.712-.129.255 0 .489.043.703.13.216.082.404.202.563.358.163.153.287.333.373.54.089.207.134.434.134.683 0 .248-.045.476-.134.683a1.59 1.59 0 0 1-.373.545 1.722 1.722 0 0 1-.563.358 1.931 1.931 0 0 1-.703.124Zm0-.425c.185 0 .355-.032.511-.095.16-.064.297-.153.411-.268a1.282 1.282 0 0 0 .373-.922 1.282 1.282 0 0 0-.373-.918 1.162 1.162 0 0 0-.411-.272 1.336 1.336 0 0 0-.511-.095c-.188 0-.361.031-.521.095a1.238 1.238 0 0 0-.411.273c-.117.114-.21.25-.277.406a1.353 1.353 0 0 0-.095.51c0 .186.032.356.095.512.067.156.16.293.277.411.118.115.255.204.411.268.16.063.333.095.521.095Zm2.88.387v-3.344h2.193l-.005.415h-1.835l.115-.12.005 3.05h-.473Zm3.097 0v-3.344h.473v2.58l1.978-2.58h.44v3.344h-.469V35.2l-1.983 2.575h-.439Zm4.268 0v-3.344H144v2.58l1.978-2.58h.44v3.344h-.469V35.2l-1.983 2.575h-.439Zm1.438-3.579c-.261 0-.463-.057-.607-.172a.601.601 0 0 1-.215-.482h.339a.371.371 0 0 0 .134.291c.086.067.203.1.349.1a.546.546 0 0 0 .344-.1.366.366 0 0 0 .139-.291h.334a.593.593 0 0 1-.22.482c-.14.115-.339.172-.597.172Z" fill="#7F7F7F"/><path d="M60.64 27.602c-1.117 0-2.148-.18-3.092-.54a7.564 7.564 0 0 1-2.475-1.516 7.199 7.199 0 0 1-1.616-2.315c-.386-.878-.579-1.842-.579-2.894 0-1.05.193-2.015.579-2.893a6.975 6.975 0 0 1 1.616-2.295 7.394 7.394 0 0 1 2.475-1.537c.944-.359 1.975-.539 3.093-.539 1.13 0 2.162.18 3.093.54.945.359 1.763.87 2.455 1.536a6.974 6.974 0 0 1 1.616 2.295c.4.878.599 1.843.599 2.893 0 1.052-.2 2.023-.599 2.914a6.974 6.974 0 0 1-1.616 2.295 7.337 7.337 0 0 1-2.455 1.517c-.931.359-1.962.539-3.093.539Zm0-3.273c.533 0 1.025-.093 1.478-.28a3.38 3.38 0 0 0 1.197-.798c.346-.36.612-.785.798-1.277.2-.492.3-1.038.3-1.637 0-.611-.1-1.157-.3-1.636a3.505 3.505 0 0 0-.798-1.257 3.259 3.259 0 0 0-1.197-.818 3.842 3.842 0 0 0-1.477-.28c-.532 0-1.031.093-1.497.28a3.494 3.494 0 0 0-1.197.818 3.908 3.908 0 0 0-.798 1.257c-.187.48-.28 1.024-.28 1.636 0 .6.093 1.145.28 1.637.2.492.465.918.798 1.277.346.346.745.612 1.197.798.466.187.965.28 1.497.28Zm9.876 2.993v-13.97h3.892V24.19h5.368V13.353h3.892v13.97H70.516Zm11.455 2.854v-3.732l.818.878h-3.013V24.19h5.807v5.987h-3.612Zm9.113-11.415h6.486v2.954h-6.486V18.76Zm.28 5.508h7.303v3.053H87.452v-13.97h10.956v3.054h-7.045v7.863Zm18.894-10.916h3.951v13.97h-3.951v-13.97Zm-5.388 13.97h-3.952v-13.97h3.952v13.97Zm5.667-5.449h-5.947v-3.273h5.947v3.273Zm15.494 5.448-3.931-6.645 3.173-1.876 5.208 8.521h-4.45Zm-8.9 0v-13.97h3.931v13.97h-3.931Zm2.793-5.348V18.78h5.069v3.193h-5.069Zm5.728-1.217-3.652-.4 4.29-7.004h4.151l-4.789 7.404Zm4.368 6.565 6.167-13.97h3.891l6.187 13.97h-4.111l-4.83-12.033h1.557l-4.829 12.033h-4.032Zm3.373-2.714 1.018-2.913h6.825l1.018 2.913h-8.861Z" fill="#152242"/></svg>
